file/sanofi.svg

<svg clip-rule="evenodd" fill-rule="evenodd" stroke-linejoin="round" stroke-miterlimit="1.41421" viewBox="0 0 560 400" xmlns="http://www.w3.org/2000/svg"><g transform="matrix(2.73968 0 0 -2.73968 -532.741 2257.68)"><path d="m7.632 72.316-.6.15-.675.3-.675.525-.3.45-.3.675-.15.6v.825l.15.45.15.675.45.525.525.3 1.425.6 4.5 1.65.975.45.675.525.825.975.6.975c3.105 8.821-9.699 12.938-13.725 5.325l-.45-1.35-.15-1.425h3.075l.15.975.3.825.525.6.45.675.675.3.6.3.825.225h1.65l.6-.225.825-.3.675-.3c1.665-1.944 1.9-4.19-.525-5.625l-1.275-.675-1.8-.45-1.95-.675-1.425-.825-1.125-.825-.825-.9-.45-1.35-.225-1.425.225-1.275.3-1.275.675-1.125.75-.825.975-.825c2.844-1.922 6.93-1.334 9.225 1.425l.825.975.45 1.275.15 1.35h-3.225l-.15-.825c-.285-1.275-1.456-2.166-2.7-2.4zm38.625 19.65h-3.225v-20.175l.15-.975.525-.6.6-.525.975-.15h.525l.6.3.3.375.525.45 9.675 16.125.15-17.1h3.225v20.175l-.15.975-.45.675-.825.45-.825.15h-.6l-.525-.15-.45-.3-.375-.525-9.825-16.275zm32.025-22.425 1.125.15c12.565 3.236 11.543 20.839-1.35 22.425h-2.25c-12.882-1.896-13.881-19.17-1.125-22.425l1.125-.15zm37.275.15v22.275h-3.225v-22.275zm-9.075 3.075h-9.525v7.125h9.525v3.075h-9.525v9h-3.225v-20.025l.15-.975.525-.6.675-.525.9-.15h10.5zm-84.75 19.2h-3.45l7.95-21 .3-.6.525-.525.6-.15.675-.15.675.15.6.15.525.525.3.6 7.875 21h-3.375l-2.25-6.3h-8.7zm55.2-19.35-1.575.15-1.65.525c-7.149 3.208-6.052 14.081 1.65 15.75l1.575.15 1.65-.15c8.04-1.574 8.536-13.161 1.575-15.75l-1.575-.525zm-48.6 1.275-3.225 8.85h6.6z" fill="#444492" fill-rule="nonzero" transform="matrix(.8 0 0 -.8 250.08 788.39)"/><path d="m318.766 771.577-1.44 1.8-.66.78-.78.66c-3.354 2.895-7.878 2.159-11.76.9l-3.06-.9-1.56-.42c-4.223-.86-8.655-.392-10.38 4.14l-.24 1.2-.12 1.14.24 1.14.42 1.2c1.606 4.003 7.69 5.015 11.46 3.96l1.86-.36 1.68-.54c5.147-1.697 9.237-5.231 12.12-9.78l.9-1.56z" fill="#bca36a" fill-rule="nonzero"/><path d="m319.006 770.917.24-1.38.42-1.56c.974-7.735-1.974-15.884-8.16-20.76l-1.8-1.44-1.8-1.02c-6.823-3.844-15.641-3.741-22.38.24l-1.56 1.02-1.56 1.2 1.2-.42 1.26-.24c6.141-.961 11.357.795 15 5.94l1.44 2.34 1.14 2.28c2.86 6.406 4.954 13.472 13.08 14.1h1.68z" fill="#444492"/><path d="m288.646 749.017-1.2-.54c-9.417-2.363-13.979 10.458-13.26 17.7l.12 1.26.9-1.14 1.02-1.02c4.237-4.433 8.106-4.101 13.08-6.84l.48-.54.42-.48c1.798-2.275 1.406-5.397-.42-7.5l-.66-.42z" fill="#acb317"/></g></svg>

<?xml version="1.0" encoding="UTF-8" standalone="no"?>
<!DOCTYPE svg PUBLIC "-//W3C//DTD SVG 1.1//EN" "http://www.w3.org/Graphics/SVG/1.1/DTD/svg11.dtd">
<svg width="100%" height="100%" viewBox="0 0 560 400" version="1.1" xmlns="http://www.w3.org/2000/svg" xmlns:xlink="http://www.w3.org/1999/xlink" xml:space="preserve" xmlns:serif="http://www.serif.com/" style="fill-rule:evenodd;clip-rule:evenodd;stroke-linejoin:round;stroke-miterlimit:1.41421;">
    <g transform="matrix(2.73968,4.83687e-32,-4.83687e-32,-2.73968,-532.741,2257.68)">
        <g id="path27" transform="matrix(0.8,0,0,-0.8,250.08,788.39)">
            <path d="M7.632,72.316L7.032,72.466L6.357,72.766L5.682,73.291L5.382,73.741L5.082,74.416L4.932,75.016L4.932,75.841L5.082,76.291L5.232,76.966L5.682,77.491L6.207,77.791L7.632,78.391L12.132,80.041L13.107,80.491L13.782,81.016L14.607,81.991L15.207,82.966C18.312,91.787 5.508,95.904 1.482,88.291L1.032,86.941L0.882,85.516L3.957,85.516L4.107,86.491L4.407,87.316L4.932,87.916L5.382,88.591L6.057,88.891L6.657,89.191L7.482,89.416L9.132,89.416L9.732,89.191L10.557,88.891L11.232,88.591C12.897,86.647 13.132,84.401 10.707,82.966L9.432,82.291L7.632,81.841L5.682,81.166L4.257,80.341L3.132,79.516L2.307,78.616L1.857,77.266L1.632,75.841L1.857,74.566L2.157,73.291L2.832,72.166L3.582,71.341L4.557,70.516C7.401,68.594 11.487,69.182 13.782,71.941L14.607,72.916L15.057,74.191L15.207,75.541L11.982,75.541L11.832,74.716C11.547,73.441 10.376,72.55 9.132,72.316L7.632,72.316ZM46.257,91.966L43.032,91.966L43.032,71.791L43.182,70.816L43.707,70.216L44.307,69.691L45.282,69.541L45.807,69.541L46.407,69.841L46.707,70.216L47.232,70.666L56.907,86.791L57.057,69.691L60.282,69.691L60.282,89.866L60.132,90.841L59.682,91.516L58.857,91.966L58.032,92.116L57.432,92.116L56.907,91.966L56.457,91.666L56.082,91.141L46.257,74.866L46.257,91.966ZM78.282,69.541L79.407,69.691C91.972,72.927 90.95,90.53 78.057,92.116L75.807,92.116C62.925,90.22 61.926,72.946 74.682,69.691L75.807,69.541L78.282,69.541ZM115.557,69.691L115.557,91.966L112.332,91.966L112.332,69.691L115.557,69.691ZM106.482,72.766L96.957,72.766L96.957,79.891L106.482,79.891L106.482,82.966L96.957,82.966L96.957,91.966L93.732,91.966L93.732,71.941L93.882,70.966L94.407,70.366L95.082,69.841L95.982,69.691L106.482,69.691L106.482,72.766ZM21.732,91.966L18.282,91.966L26.232,70.966L26.532,70.366L27.057,69.841L27.657,69.691L28.332,69.541L29.007,69.691L29.607,69.841L30.132,70.366L30.432,70.966L38.307,91.966L34.932,91.966L32.682,85.666L23.982,85.666L21.732,91.966ZM76.932,72.616L75.357,72.766L73.707,73.291C66.558,76.499 67.655,87.372 75.357,89.041L76.932,89.191L78.582,89.041C86.622,87.467 87.118,75.88 80.157,73.291L78.582,72.766L76.932,72.616ZM28.332,73.891L25.107,82.741L31.707,82.741L28.332,73.891Z" style="fill:rgb(68,68,146);fill-rule:nonzero;"/>
        </g>
        <g>
            <path id="path51" d="M318.766,771.577L317.326,773.377L316.666,774.157L315.886,774.817C312.532,777.712 308.008,776.976 304.126,775.717L301.066,774.817L299.506,774.397C295.283,773.537 290.851,774.005 289.126,778.537L288.886,779.737L288.766,780.877L289.006,782.017L289.426,783.217C291.032,787.22 297.116,788.232 300.886,787.177L302.746,786.817L304.426,786.277C309.573,784.58 313.663,781.046 316.546,776.497L317.446,774.937L318.766,771.577" style="fill:rgb(188,163,106);fill-rule:nonzero;"/>
            <path id="path55" d="M319.006,770.917L319.246,769.537L319.666,767.977C320.64,760.242 317.692,752.093 311.506,747.217L309.706,745.777L307.906,744.757C301.083,740.913 292.265,741.016 285.526,744.997L283.966,746.017L282.406,747.217L283.606,746.797L284.866,746.557C291.007,745.596 296.223,747.352 299.866,752.497L301.306,754.837L302.446,757.117C305.306,763.523 307.4,770.589 315.526,771.217L317.206,771.217L319.006,770.917" style="fill:rgb(68,68,146);"/>
            <path id="path59" d="M288.646,749.017L287.446,748.477C278.029,746.114 273.467,758.935 274.186,766.177L274.306,767.437L275.206,766.297L276.226,765.277C280.463,760.844 284.332,761.176 289.306,758.437L289.786,757.897L290.206,757.417C292.004,755.142 291.612,752.02 289.786,749.917L289.126,749.497L288.646,749.017" style="fill:rgb(172,179,23);"/>
        </g>
    </g>
</svg>
